X:381
T:The Gallery
C:Simon Heywood
L:1/4
M:4/4
R:Reel
Q:1/2=106
%%MIDI bassprog 35      % Fretless Bass
%%MIDI chordprog 25     % Acoustic Guitar (steel)
%%MIDI program 21       % Accordion
%%MIDI ratio 3 1
K:D
P:A
|: "D"Ad dA/B/ | =cB AG | FF GE | A4 | "D"Ad dA/B/ | =cB AG | FF GE | D4 :|
P:B
"D"D>E FD | "G"G3A | "D"F>G AB | "Am"=c4 | "C"=cc BA | "G"B/=c/B/A/ GF/G/ | "D"AA GF | "A"E4 |
"D"D>E FD | "G"G3A | "D"F>G AB | "Am"=c4 | "C"=cc BA | "G"BG "D"AF/G/ | "D"AG/F/ "A"E>D | "D"D4 |]
N:Replace by blank line and X field
T:The Venus of Levenshulme
C:Simon Heywood
L:1/4
M:2/2
R:Reel
S:Colin Hume's website,  colinhume.com  - chords can also be printed below the stave.
Q:1/2=106
%%MIDI program 22       % Harmonica
K:Am
P:A
|: "Am"AA A/e/a/g/ | ae/d/ cA | "G"G/A/B/G/ "Am"Ac/d/ | "C"e/d/c/e/ "G"dc/B/ |
"Am"AA A/e/a/g/ | ae/d/ cA | "G"G/A/B/G/ "Am"Ac/d/ | "Em"e/d/c "Am"A2 :|
P:B
|: "D"dd dc/d/ | "Em"ec/d/ e2 | "Am"AA A/B/c/e/ | "G"d/c/B/A/ G2 |
"F"AA A/B/c/e/ | "G"d/c/B/A/ G2 |1 "G"G/A/B/G/ "Am"Ac/d/ | "Em"e/d/c "Am"A2 :|2 "G"d/e/d/c/ "Em"AG | "Am"A2 A2 |]

